flaticon/outdoor/map.svg

<svg xmlns="http://www.w3.org/2000/svg" width="32" height="32" viewBox="0 0 24 24">
    <path d="M 21.101562 0.621094 C 19.648438 0.621094 18.441406 1.703125 18.238281 3.101562 L 5.761719 3.101562 C 5.558594 1.703125 4.351562 0.621094 2.898438 0.621094 C 1.300781 0.621094 0 1.921875 0 3.515625 L 0 20.484375 C 0 22.078125 1.300781 23.378906 2.898438 23.378906 L 21.101562 23.378906 C 22.699219 23.378906 24 22.078125 24 20.484375 L 24 3.515625 C 24 1.921875 22.699219 0.621094 21.101562 0.621094 Z M 0.828125 3.515625 C 0.828125 2.375 1.753906 1.449219 2.898438 1.449219 C 4.039062 1.449219 4.964844 2.375 4.964844 3.515625 L 4.964844 18.457031 C 4.441406 17.921875 3.707031 17.585938 2.898438 17.585938 C 2.085938 17.585938 1.355469 17.921875 0.828125 18.457031 Z M 21.101562 22.550781 L 9.515625 22.550781 L 9.515625 22.136719 C 9.515625 21.910156 9.332031 21.722656 9.101562 21.722656 C 8.875 21.722656 8.691406 21.910156 8.691406 22.136719 L 8.691406 22.550781 L 7.863281 22.550781 L 7.863281 20.898438 C 7.863281 20.667969 7.675781 20.484375 7.449219 20.484375 C 7.21875 20.484375 7.035156 20.667969 7.035156 20.898438 L 7.035156 22.550781 L 2.898438 22.550781 C 1.753906 22.550781 0.828125 21.625 0.828125 20.484375 C 0.828125 19.34375 1.753906 18.414062 2.898438 18.414062 C 4.039062 18.414062 4.964844 19.34375 4.964844 20.484375 L 5.792969 20.484375 L 5.792969 3.929688 L 14.070312 3.929688 L 14.070312 5.585938 C 14.070312 5.816406 14.253906 6 14.484375 6 C 14.710938 6 14.898438 5.816406 14.898438 5.585938 L 14.898438 3.929688 L 15.722656 3.929688 L 15.722656 4.757812 C 15.722656 4.988281 15.910156 5.171875 16.136719 5.171875 C 16.367188 5.171875 16.550781 4.988281 16.550781 4.757812 L 16.550781 3.929688 L 18.207031 3.929688 L 18.207031 20.484375 L 19.035156 20.484375 C 19.035156 19.34375 19.960938 18.414062 21.101562 18.414062 C 22.246094 18.414062 23.171875 19.34375 23.171875 20.484375 C 23.171875 21.625 22.246094 22.550781 21.101562 22.550781 Z M 23.171875 18.457031 C 22.644531 17.921875 21.914062 17.585938 21.101562 17.585938 C 20.292969 17.585938 19.558594 17.921875 19.035156 18.457031 L 19.035156 3.515625 C 19.035156 2.375 19.960938 1.449219 21.101562 1.449219 C 22.246094 1.449219 23.171875 2.375 23.171875 3.515625 Z M 23.171875 18.457031"/>
    <path d="M9.242188 11.859375C9.148438 11.570312 9.101562 11.269531 9.101562 10.964844 9.101562 10.738281 8.917969 10.550781 8.691406 10.550781 8.460938 10.550781 8.277344 10.738281 8.277344 10.964844 8.277344 11.355469 8.335938 11.738281 8.453125 12.109375 8.507812 12.285156 8.667969 12.398438 8.847656 12.398438 8.886719 12.398438 8.929688 12.390625 8.96875 12.378906 9.1875 12.308594 9.308594 12.078125 9.242188 11.859375zM10.746094 13.710938C10.386719 13.496094 10.074219 13.230469 9.820312 12.917969 9.675781 12.742188 9.414062 12.714844 9.238281 12.859375 9.058594 13.003906 9.035156 13.265625 9.179688 13.441406 9.496094 13.828125 9.878906 14.15625 10.320312 14.421875 10.386719 14.460938 10.460938 14.480469 10.535156 14.480469 10.675781 14.480469 10.8125 14.410156 10.890625 14.28125 11.007812 14.082031 10.941406 13.828125 10.746094 13.710938zM13.96875 14.453125C13.601562 14.335938 13.214844 14.277344 12.828125 14.277344 12.511719 14.277344 12.195312 14.242188 11.890625 14.171875 11.667969 14.117188 11.445312 14.257812 11.394531 14.480469 11.34375 14.703125 11.484375 14.925781 11.707031 14.976562 12.070312 15.0625 12.449219 15.101562 12.828125 15.101562 13.132812 15.101562 13.433594 15.148438 13.722656 15.242188 13.761719 15.253906 13.804688 15.261719 13.847656 15.261719 14.023438 15.261719 14.183594 15.148438 14.242188 14.96875 14.308594 14.753906 14.1875 14.519531 13.96875 14.453125zM16.285156 16.320312C16.019531 15.878906 15.691406 15.496094 15.304688 15.179688 15.128906 15.035156 14.867188 15.058594 14.722656 15.234375 14.578125 15.414062 14.601562 15.671875 14.78125 15.820312 15.089844 16.074219 15.359375 16.386719 15.574219 16.746094 15.652344 16.875 15.789062 16.949219 15.929688 16.949219 16 16.949219 16.074219 16.929688 16.140625 16.886719 16.335938 16.769531 16.402344 16.515625 16.285156 16.320312zM16.34375 17.394531C16.121094 17.445312 15.980469 17.667969 16.03125 17.890625 16.101562 18.195312 16.136719 18.511719 16.136719 18.828125 16.136719 19.054688 16.324219 19.242188 16.550781 19.242188 16.78125 19.242188 16.964844 19.054688 16.964844 18.828125 16.964844 18.449219 16.921875 18.070312 16.839844 17.707031 16.789062 17.484375 16.566406 17.34375 16.34375 17.394531zM9.636719 10.429688L10.222656 9.84375 9.273438 8.898438 10.222656 7.949219 9.636719 7.363281 8.691406 8.3125 7.742188 7.363281 7.15625 7.949219 8.105469 8.898438 7.15625 9.84375 7.742188 10.429688 8.691406 9.480469zM9.636719 10.429688"/>
</svg>

<svg xmlns="http://www.w3.org/2000/svg" width="32" height="32" viewBox="0 0 24 24">
    <path d="M21.102.621a2.902 2.902 0 0 0-2.864 2.48H5.762A2.902 2.902 0 0 0 2.898.622 2.902 2.902 0 0 0 0 3.516v16.968c0 1.594 1.3 2.895 2.898 2.895h18.204c1.597 0 2.898-1.3 2.898-2.895V3.516C24 1.922 22.7.62 21.102.62zM.828 3.516a2.068 2.068 0 0 1 4.137 0v14.941a2.888 2.888 0 0 0-4.137 0zM21.102 22.55H9.516v-.414a.414.414 0 0 0-.414-.414.413.413 0 0 0-.41.414v.414h-.829v-1.653a.414.414 0 0 0-.828 0v1.653H2.898a2.068 2.068 0 1 1 2.067-2.067h.828V3.93h8.277v1.656a.414.414 0 0 0 .828 0V3.93h.825v.828a.414.414 0 0 0 .828 0V3.93h1.656v16.554h.828c0-1.14.926-2.07 2.067-2.07a2.068 2.068 0 1 1 0 4.137zm2.07-4.094a2.888 2.888 0 0 0-4.137 0V3.516a2.068 2.068 0 1 1 4.137 0zm0 0"/>
    <path d="M9.242 11.86c-.094-.29-.14-.59-.14-.895a.413.413 0 0 0-.41-.414.414.414 0 0 0-.415.414c0 .39.059.773.176 1.144a.41.41 0 0 0 .516.27c.219-.07.34-.3.273-.52zm0 0M10.746 13.71a3.495 3.495 0 0 1-.926-.792.415.415 0 0 0-.582-.059.411.411 0 0 0-.058.582c.316.387.699.715 1.14.98a.414.414 0 0 0 .57-.14.418.418 0 0 0-.144-.57zm0 0M13.969 14.453a3.76 3.76 0 0 0-1.14-.176c-.317 0-.634-.035-.938-.105a.41.41 0 0 0-.496.308c-.051.223.09.446.312.497.363.085.742.125 1.121.125.305 0 .606.046.895.14a.416.416 0 0 0 .52-.273.413.413 0 0 0-.274-.516zm0 0M16.285 16.32a4.383 4.383 0 0 0-.98-1.14.414.414 0 1 0-.524.64c.309.254.578.567.793.926a.418.418 0 0 0 .356.203c.07 0 .144-.02.21-.062a.414.414 0 0 0 .145-.567zm0 0M16.344 17.395a.415.415 0 0 0-.313.496c.07.304.106.62.106.937a.414.414 0 0 0 .828 0 5.11 5.11 0 0 0-.125-1.121.415.415 0 0 0-.496-.312zm0 0M9.637 10.43l.586-.586-.95-.946.95-.949-.586-.586-.946.95-.949-.95-.586.586.95.95-.95.945.586.586.95-.95zm0 0"/>
</svg>
